Numix/16/status/indicator-keyboard-No-1.svg

<?xml version="1.0" encoding="UTF-8" standalone="no"?>
<svg
   xmlns:dc="http://purl.org/dc/elements/1.1/"
   xmlns:cc="http://creativecommons.org/ns#"
   xmlns:rdf="http://www.w3.org/1999/02/22-rdf-syntax-ns#"
   xmlns:svg="http://www.w3.org/2000/svg"
   xmlns="http://www.w3.org/2000/svg"
   xmlns:sodipodi="http://sodipodi.sourceforge.net/DTD/sodipodi-0.dtd"
   xmlns:inkscape="http://www.inkscape.org/namespaces/inkscape"
   viewBox="0 0 16 16"
   id="svg2"
   version="1.1"
   inkscape:version="0.91 r13725"
   sodipodi:docname="indicator-keyboard-No-1.svg">
  <metadata
     id="metadata14">
    <rdf:RDF>
      <cc:Work
         rdf:about="">
        <dc:format>image/svg+xml</dc:format>
        <dc:type
           rdf:resource="http://purl.org/dc/dcmitype/StillImage" />
      </cc:Work>
    </rdf:RDF>
  </metadata>
  <defs
     id="defs12" />
  <sodipodi:namedview
     pagecolor="#ffffff"
     bordercolor="#666666"
     borderopacity="1"
     objecttolerance="10"
     gridtolerance="10"
     guidetolerance="10"
     inkscape:pageopacity="0"
     inkscape:pageshadow="2"
     inkscape:window-width="640"
     inkscape:window-height="480"
     id="namedview10"
     showgrid="false"
     inkscape:zoom="14.75"
     inkscape:cx="8"
     inkscape:cy="8"
     inkscape:window-x="65"
     inkscape:window-y="24"
     inkscape:window-maximized="0"
     inkscape:current-layer="svg2" />
  <path
     style="fill:#ececec;fill-opacity:1"
     d="M 1.5996094 0 C 0.71320937 2.9605947e-16 0 0.71320937 0 1.5996094 L 0 14.400391 C 2.9605947e-16 15.286791 0.71320937 16 1.5996094 16 L 14.400391 16 C 15.286791 16 16 15.286791 16 14.400391 L 16 1.5996094 C 16 0.71320937 15.286791 0 14.400391 0 L 1.5996094 0 z M 1.5625 4.859375 L 2.0488281 4.859375 C 2.3548281 5.201375 2.6812969 5.596875 3.0292969 6.046875 C 3.3832969 6.490875 3.7284531 6.9460625 4.0644531 7.4140625 C 4.4004531 7.8760625 4.712 8.3294375 5 8.7734375 C 5.294 9.2174375 5.5347031 9.6055469 5.7207031 9.9355469 L 5.7207031 4.859375 L 6.3242188 4.859375 L 6.3242188 11.095703 L 5.8105469 11.095703 C 5.6965469 10.885703 5.5491406 10.639422 5.3691406 10.357422 C 5.1951406 10.075422 5.0029687 9.7750312 4.7929688 9.4570312 C 4.5829687 9.1330312 4.3609531 8.80475 4.1269531 8.46875 C 3.8929531 8.12675 3.6597812 7.7965156 3.4257812 7.4785156 C 3.1977812 7.1545156 2.972 6.8503594 2.75 6.5683594 C 2.534 6.2863594 2.3400156 6.0438437 2.1660156 5.8398438 L 2.1660156 11.095703 L 1.5625 11.095703 L 1.5625 4.859375 z M 9.7519531 6.3359375 C 10.063953 6.3359375 10.349422 6.395625 10.607422 6.515625 C 10.865422 6.629625 11.087438 6.7937656 11.273438 7.0097656 C 11.465438 7.2197656 11.612844 7.4753906 11.714844 7.7753906 C 11.822844 8.0753906 11.876953 8.4074375 11.876953 8.7734375 C 11.876953 9.1394375 11.822844 9.4734375 11.714844 9.7734375 C 11.612844 10.073438 11.465437 10.327109 11.273438 10.537109 C 11.087437 10.747109 10.865422 10.913203 10.607422 11.033203 C 10.349422 11.147203 10.063953 11.203125 9.7519531 11.203125 C 9.4399531 11.203125 9.1564375 11.147203 8.8984375 11.033203 C 8.6404375 10.913203 8.4146562 10.747109 8.2226562 10.537109 C 8.0366563 10.327109 7.88925 10.073438 7.78125 9.7734375 C 7.67925 9.4734375 7.6289062 9.1394375 7.6289062 8.7734375 C 7.6289062 8.4074375 7.67925 8.0753906 7.78125 7.7753906 C 7.88925 7.4753906 8.0366563 7.2197656 8.2226562 7.0097656 C 8.4146563 6.7937656 8.6404375 6.629625 8.8984375 6.515625 C 9.1564375 6.395625 9.4399531 6.3359375 9.7519531 6.3359375 z M 9.7519531 6.8652344 C 9.2899531 6.8652344 8.9242969 7.0406719 8.6542969 7.3886719 C 8.3842969 7.7306719 8.25 8.1914375 8.25 8.7734375 C 8.25 9.3554375 8.3842969 9.818156 8.6542969 10.160156 C 8.9242969 10.502156 9.2899531 10.673828 9.7519531 10.673828 C 10.213953 10.673828 10.581563 10.502156 10.851562 10.160156 C 11.121562 9.8181561 11.255859 9.3554375 11.255859 8.7734375 C 11.255859 8.1914375 11.121562 7.7306719 10.851562 7.3886719 C 10.581563 7.0406719 10.213953 6.8652344 9.7519531 6.8652344 z M 14.167969 8.8417969 L 14.4375 8.8417969 L 14.4375 12.896484 L 14.056641 12.896484 L 14.056641 9.421875 C 14.013741 9.468675 13.956919 9.5157063 13.886719 9.5664062 C 13.820419 9.6171063 13.744003 9.66805 13.658203 9.71875 C 13.572403 9.76555 13.484225 9.812575 13.390625 9.859375 C 13.297025 9.902275 13.202975 9.9375437 13.109375 9.9648438 L 12.998047 9.671875 C 13.232047 9.5899751 13.439747 9.4880813 13.623047 9.3632812 C 13.806347 9.2345813 13.988569 9.0601969 14.167969 8.8417969 z "
     id="path4" />
</svg>

<svg xmlns="http://www.w3.org/2000/svg" viewBox="0 0 16 16">
 <path d="m 1.6 0 c -0.886 0 -1.6 0.713 -1.6 1.6 l 0 12.801 c 0 0.886 0.713 1.6 1.6 1.6 l 12.801 0 c 0.886 0 1.6 -0.713 1.6 -1.6 l 0 -12.801 c 0 -0.886 -0.713 -1.6 -1.6 -1.6 l -12.801 0 z m -0.037 4.859 l 0.486 0 c 0.306 0.342 0.632 0.737 0.98 1.188 c 0.354 0.444 0.699 0.899 1.035 1.367 c 0.336 0.462 0.648 0.915 0.936 1.359 c 0.294 0.444 0.535 0.832 0.721 1.162 l 0 -5.076 l 0.604 0 l 0 6.236 l -0.514 0 c -0.114 -0.21 -0.261 -0.456 -0.441 -0.738 c -0.174 -0.282 -0.366 -0.582 -0.576 -0.9 c -0.21 -0.324 -0.432 -0.652 -0.666 -0.988 c -0.234 -0.342 -0.467 -0.672 -0.701 -0.99 c -0.228 -0.324 -0.454 -0.628 -0.676 -0.91 c -0.216 -0.282 -0.41 -0.525 -0.584 -0.729 l 0 5.256 l -0.604 0 l 0 -6.236 z m 8.189 1.477 c 0.312 0 0.597 0.06 0.855 0.18 c 0.258 0.114 0.48 0.278 0.666 0.494 c 0.192 0.21 0.339 0.466 0.441 0.766 c 0.108 0.3 0.162 0.632 0.162 0.998 c 0 0.366 -0.054 0.7 -0.162 1 c -0.102 0.3 -0.249 0.554 -0.441 0.764 c -0.186 0.21 -0.408 0.376 -0.666 0.496 c -0.258 0.114 -0.543 0.17 -0.855 0.17 c -0.312 0 -0.596 -0.056 -0.854 -0.17 c -0.258 -0.12 -0.484 -0.286 -0.676 -0.496 c -0.186 -0.21 -0.333 -0.464 -0.441 -0.764 c -0.102 -0.3 -0.152 -0.634 -0.152 -1 c 0 -0.366 0.05 -0.698 0.152 -0.998 c 0.108 -0.3 0.255 -0.556 0.441 -0.766 c 0.192 -0.216 0.418 -0.38 0.676 -0.494 c 0.258 -0.12 0.542 -0.18 0.854 -0.18 z m 0 0.529 c -0.462 0 -0.828 0.175 -1.098 0.523 c -0.27 0.342 -0.404 0.803 -0.404 1.385 c 0 0.582 0.134 1.045 0.404 1.387 c 0.27 0.342 0.636 0.514 1.098 0.514 c 0.462 0 0.83 -0.172 1.1 -0.514 c 0.27 -0.342 0.404 -0.805 0.404 -1.387 c 0 -0.582 -0.134 -1.043 -0.404 -1.385 c -0.27 -0.348 -0.638 -0.523 -1.1 -0.523 z m 4.416 1.977 l 0.27 0 l 0 4.055 l -0.381 0 l 0 -3.475 c -0.043 0.047 -0.1 0.094 -0.17 0.145 c -0.066 0.051 -0.143 0.102 -0.229 0.152 c -0.086 0.047 -0.174 0.094 -0.268 0.141 c -0.094 0.043 -0.188 0.078 -0.281 0.105 l -0.111 -0.293 c 0.234 -0.082 0.442 -0.184 0.625 -0.309 c 0.183 -0.129 0.366 -0.303 0.545 -0.521 z" style="fill:#ececec;fill-opacity:1"/>
</svg>
